!!!COM: Bach, Johann Sebastian
!!!OPR: Die Kunst der Fuge
!!!XEN: The Art of Fugue
!!!OTL:
!!!OMV: 19
!!!SCT: BWV 1080
!!!SCA: Thematisch-systematisches Verzeichnis der musikalischen Werke Johann Sebastian Bach: Bach-Werke-Verzeichnis (Schmieder)
!!!YOR: Bach Gesellschaft Edition xxv,1
!!!EED: Frances Bennion
!!!ENC: Frances Bennion
!!!CDT: 1685/3//-1750/7/28/
!!!OCY: Deutschland
!!!YEC: Copyright (c) 1994, 2000 Center for Computer Assisted Research in the Humanities
!!!YEM: Rights to all derivative editions reserved.
!!!YEM: Refer to licensing agreement for further details.
!!!YEN: United States of America
**kern	**kern	**kern	**kern	**kern
*k[b-]	*k[b-]	*k[b-]	*k[b-]	*k[b-]
*d:	*d:	*d:	*d:	*d:
*clefG	*clefC	*clefG	*clefC	*clefC
*M2/4	*M2/4	*M2/4	*M2/4	*M2/4
=0-	=0-	=0-	=0-	=0-
4.r	4.r	4.r	4.r	4.r
8r	8r	8a	8r	8r
=1	=1	=1	=1	=1
2r	2r	8dd	8r	2r
.	.	6d	8F	.
.	.	.	8B-	.
.	.	24e	.	.
.	.	24f	.	.
.	.	24e	8C#	.
.	.	24f	.	.
.	.	24g	.	.
=2	=2	=2	=2	=2
2r	2r	24f	8D	2r
.	.	24g	.	.
.	.	24a	.	.
.	.	6g	8B-	.
.	.	.	8E	.
.	.	24a	.	.
.	.	24b-	.	.
.	.	24a	8F#	.
.	.	24b-	.	.
.	.	24cc	.	.
=3	=3	=3	=3	=3
2r	2r	24b-	6G	2r
.	.	24a	.	.
.	.	24g	.	.
.	.	6a	.	.
.	.	.	24F	.
.	.	.	24E	.
.	.	.	8F	.
.	.	24g	.	.
.	.	24f	.	.
.	.	24g	8A	.
.	.	24f	.	.
.	.	24e	.	.
=4	=4	=4	=4	=4
2r	4.r	16f	8D	2r
.	.	16a	.	.
.	.	16dd	8F	.
.	.	16a	.	.
.	.	16f	8A	.
.	.	16e	.	.
.	8D	16f	[8d	.
.	.	16g	.	.
=5	=5	=5	=5	=5
8r	8AA	24a	16.d]	2r
.	.	24e	.	.
.	.	24g	.	.
.	.	.	32c#	.
8a	6A	24f	24d	.
.	.	24e	24c#	.
.	.	24d	24B	.
8ee	.	8c#	8A	.
.	24G	.	.	.
.	24F	.	.	.
8e	24G	8b-	8c#	.
.	24F	.	.	.
.	24E	.	.	.
=6	=6	=6	=6	=6
16r	24F	6a	16.d	2r
.	24E	.	.	.
16aa	.	.	.	.
.	24D	.	.	.
.	.	.	32c	.
16.cc#	6E	.	16.B-	.
.	.	24g	.	.
.	.	24f	.	.
32dd	.	.	32A	.
8g	.	[4g	16.B-	.
.	24D	.	.	.
.	24C#	.	.	.
.	.	.	32A	.
8ee	24D	.	24B-	.
.	24C#	.	24A	.
.	24BB	.	24G	.
=7	=7	=7	=7	=7
16r	24C#	6g]	8e	2r
.	24D	.	.	.
16cc#	.	.	.	.
.	24E	.	.	.
16.dd	6D	.	24A	.
.	.	24f	24B	.
.	.	24e	24c#	.
32bb-	.	.	.	.
24aa	.	16.f	8d	.
24gg	24E	.	.	.
24ff	24F	.	.	.
.	.	32dd	.	.
16.gg	24E	16.cc	8r	.
.	24F	.	.	.
.	24G	.	.	.
32cc#	.	32b-	.	.
=8	=8	=8	=8	=8
8dd	16F	[6..a	24r	2r
.	.	.	24d	.
.	16D	.	.	.
.	.	.	24A	.
8d	16AA	.	24F	.
.	.	.	24A	.
.	16D	.	.	.
.	.	.	24F	.
8r	16F	.	8D	.
.	.	48a]	.	.
.	16G	16b-	.	.
8dd	16F	16a	8A	.
.	16E	16g	.	.
=9	=9	=9	=9	=9
8aa	24D	8f	24d	2r
.	24C#	.	24e	.
.	24BB	.	24f	.
6a	24C#	4r	24e	.
.	24D	.	24d	.
.	24E	.	24c#	.
.	8F	.	6d	.
24b	.	.	.	.
24cc	.	.	.	.
24b	8GG#	8f	.	.
24cc	.	.	24c	.
24dd	.	.	24B	.
=10	=10	=10	=10	=10
24cc	8AA	8e	8c	2r
24dd	.	.	.	.
24ee	.	.	.	.
6dd	4r	24f	8A	.
.	.	24e	.	.
.	.	24g	.	.
.	.	24f	8AA	.
24ee	.	24e	.	.
24ff	.	24d	.	.
24ee	[8A	24c#	8r	.
24ff	.	24d	.	.
24gg	.	24e	.	.
=11	=11	=11	=11	=11
24ff	8A]	8d	8r	2r
24ee	.	.	.	.
24dd	.	.	.	.
6ee	24G#	4r	24B	.
.	24A	.	24c	.
.	24F#	.	24A	.
.	4G#	.	8B	.
24dd	.	.	.	.
24cc	.	.	.	.
24dd	.	8f	8r	.
24cc	.	.	.	.
24b	.	.	.	.
=12	=12	=12	=12	=12
16cc	[2A	8e	24r	2r
.	.	.	24AA	.
16ee	.	.	.	.
.	.	.	24C	.
16aa	.	8c	24E	.
.	.	.	24C	.
16ee	.	.	.	.
.	.	.	24E	.
16cc	.	8e	16A	.
16b	.	.	32G#	.
.	.	.	32F#	.
16cc	.	16a	32E	.
.	.	.	32D	.
16dd	.	16b	32C	.
.	.	.	32BB	.
=13	=13	=13	=13	=13
4ee	16A]	8cc	16AA	4r
.	16E	.	16C	.
.	16C	8a	16E	.
.	16E	.	16A	.
8r	16A	8cc	16AA	4AA
.	16B-	.	16G	.
8cc#	16A	8ee	16F	.
.	16G	.	16E	.
=14	=14	=14	=14	=14
8dd	16F	8dd	8F	4D
.	16A	.	.	.
16ff	16d	8d	8A	.
16ee	16A	.	.	.
8dd	16F	4r	16r	4r
.	16D	.	16C	.
8ccc	16E	.	16BB-	.
.	16F#	.	16AA	.
=15	=15	=15	=15	=15
8bb-	16G	8r	16GG	4r
.	16D	.	16BB-	.
8dd	16BB-	8g	16D	.
.	16D	.	16G	.
8r	16G	8b-	16GG	4GG
.	16A	.	16F	.
8b	16G	8dd	16E	.
.	16F	.	16D	.
=16	=16	=16	=16	=16
8cc	16E	8cc	8E	4C
.	16G	.	.	.
16ee	16c	8c	8G	.
16dd	16G	.	.	.
8cc	16E	4r	16r	4r
.	16C	.	16BB-	.
8bb-	16D	.	16AA	.
.	16E	.	16GG	.
=17	=17	=17	=17	=17
8.aa	16F	8r	8FF	2r
.	16G	.	.	.
.	16F	8a	8F	.
16gg	16E	.	.	.
16ff	16D	[4aa	8r	.
16ee	16E	.	.	.
16dd	16F	.	8D	.
16ff	16D	.	.	.
=18	=18	=18	=18	=18
8b-	16G	8aa]	4d	2r
.	16A	.	.	.
8bb-	16G	8dd	.	.
.	16F	.	.	.
8gg	16E	[4gg	8r	.
.	16F	.	.	.
8ee	16G	.	16b-	.
.	16E	.	16g	.
=19	=19	=19	=19	=19
8.cc#	16A	8gg]	8e	2r
.	16B-	.	.	.
.	16A	16ff	4r	.
32dd	16G	16ee	.	.
32ee	.	.	.	.
16a	16F	16dd	.	.
16ee	16E	16cc#	.	.
16ff	16D	[8dd	8d	.
16gg	16E	.	.	.
=20	=20	=20	=20	=20
8.aa	16F	16dd]	8A	2r
.	16E	16cc#	.	.
.	16F	16dd	6a	.
16gg	16G	16ee	.	.
24ff	8A	8cc#	.	.
24ee	.	.	24g	.
24dd	.	.	24f	.
16.ee	8C#	8r	24g	.
.	.	.	24f	.
.	.	.	24e	.
32bb-	.	.	.	.
=21	=21	=21	=21	=21
8aa	8D	8r	24f	2r
.	.	.	24e	.
.	.	.	24d	.
24gg	8B-	16g	6e	.
24aa	.	.	.	.
.	.	16a	.	.
24ff	.	.	.	.
24gg	8r	8b-	.	.
24ff	.	.	24d	.
[8ee	.	.	24c#	.
.	8G#	24b	24d	.
.	.	24cc#	24c#	.
96ee]	.	24dd	24B	.
32ff	.	.	.	.
=22	=22	=22	=22	=22
24ee	8A	8a	24c#	2r
24ff	.	.	24d	.
24gg	.	.	24e	.
24ff	4r	24aa	6d	.
24dd	.	24ff	.	.
24a	.	24dd	.	.
24b	.	16.gg	.	.
24cc#	.	.	24e	.
24dd	.	.	24f	.
.	.	32bb-	.	.
24cc#	8A	16.aa	24e	.
24dd	.	.	24f	.
24ee	.	.	24g	.
.	.	32cc#	.	.
=23	=23	=23	=23	=23
8dd	8D	8dd	16f	2r
.	.	.	16d	.
8ff	4r	8aa	16A	.
.	.	.	16d	.
8dd	.	8a	16f	.
.	.	.	16g	.
8a	8D	8dd	16f	.
.	.	.	16e	.
=24	=24	=24	=24	=24
16b-	8G	8r	8d	2r
16dd	.	.	.	.
16gg	4r	32cc	16e	.
.	.	32b-	.	.
16dd	.	16a	16f#	.
16b-	.	8b-	8g	.
16g	.	.	.	.
16a	8D	8dd	8f	.
16b	.	.	.	.
=25	=25	=25	=25	=25
8cc	8C	8r	16e-	2r
.	.	.	16c	.
8ee-	4r	8gg	16G	.
.	.	.	16c	.
8cc	.	8g	16e-	.
.	.	.	16f	.
8g	8C	8cc	16e-	.
.	.	.	16d	.
=26	=26	=26	=26	=26
16a	8F	8r	8c	2r
16cc	.	.	.	.
16ff	4r	32b-	16d	.
.	.	32a	.	.
16cc	.	16g	16e-	.
16a	.	8a	8f	.
16f	.	.	.	.
16g	8C	8cc	8e-	.
16a	.	.	.	.
=27	=27	=27	=27	=27
8b-	8G	8r	16d	2r
.	.	.	16c	.
6bb-	4.r	16dd	16B-	.
.	.	16ee-	16c	.
.	.	8ff	16.d	.
24aa-	.	.	.	.
24gg	.	.	.	.
.	.	.	32e-	.
24aa-	.	[8b-	16.f	.
24gg	.	.	.	.
24ff	.	.	.	.
.	.	.	32d	.
=28	=28	=28	=28	=28
24gg	4.r	24b-]	6e-	2r
24ff	.	24a	.	.
24ee-	.	24g	.	.
6ff	.	24a	.	.
.	.	24b-	24d	.
.	.	24cc	24c	.
.	.	16.b-	24d	.
24ee-	.	.	24c	.
24dd	.	.	24B-	.
.	.	32ff	.	.
24ee-	8F	16.a	24c	.
24dd	.	.	24B-	.
24cc	.	.	24A	.
.	.	32ee-	.	.
=29	=29	=29	=29	=29
8dd	8B-	24dd	8B-	2r
.	.	24b-	.	.
.	.	24cc	.	.
8ff	6BB-	24dd	8.r	.
.	.	24cc	.	.
.	.	24b-	.	.
8dd	.	[4f	.	.
.	24C	.	.	.
.	.	.	48r	.
.	24D	.	24B-	.
8a	24C	.	24e-	.
.	24D	.	24d	.
.	24E-	.	24c	.
=30	=30	=30	=30	=30
[2b-	24D	8f]	6B-	2r
.	24E-	.	.	.
.	24F	.	.	.
.	6E-	24g	.	.
.	.	24f	24d	.
.	.	24a-	24B-	.
.	.	8g	16.e-	.
.	24F	.	.	.
.	24G	.	.	.
.	.	.	32B-	.
.	24F	8d	24A-	.
.	24G	.	24G	.
.	24A-	.	24F	.
=31	=31	=31	=31	=31
2b-_	24G	8e-	24E-	2r
.	24F	.	24F	.
.	24E-	.	24G	.
.	6F	24d	8BB-	.
.	.	24e-	.	.
.	.	24c	.	.
.	.	8d	16r	.
.	24E-	.	.	.
.	.	.	16BB-	.
.	24D	.	.	.
.	24E-	8g	16.EE-	.
.	24D	.	.	.
.	24C	.	.	.
.	.	.	32E-	.
=32	=32	=32	=32	=32
4b-]	16.D	24f	8BB-	2r
.	.	24B-	.	.
.	.	24d	.	.
.	32F	.	.	.
.	16.B-	24f	8D	.
.	.	24d	.	.
.	.	24f	.	.
.	32F	.	.	.
8r	16D	16b-	16GG	.
.	16C	16e	16BB-	.
8b-	16D	16f	16AA	.
.	16E	16g	16GG	.
=33	=33	=33	=33	=33
8f	8F	24a	8D	2r
.	.	24b-	.	.
.	.	24cc	.	.
6ff	8D	24b-	8DD	.
.	.	24cc	.	.
.	.	24dd	.	.
.	16.AA	[4f	8r	.
24ee-	.	.	.	.
24dd	.	.	.	.
.	32BB-	.	.	.
24ee-	16.C	.	8FF	.
24dd	.	.	.	.
24cc	.	.	.	.
.	32AA	.	.	.
=34	=34	=34	=34	=34
24dd	6BB-	2f_	8BB-	2r
24cc	.	.	.	.
24b-	.	.	.	.
6cc	.	.	8E-	.
.	24AA	.	.	.
.	24GG	.	.	.
.	24AA	.	16r	.
24b-	24BB-	.	.	.
.	.	.	16E-	.
24a	24C	.	.	.
24b-	24D	.	16.D	.
24a	24C	.	.	.
24g	24BB-	.	.	.
.	.	.	32E	.
=35	=35	=35	=35	=35
24a	24C	2f_	8F	2r
24b-	24D	.	.	.
24cc	24E-	.	.	.
6b-	24D	.	8FF	.
.	24E-	.	.	.
.	24C	.	.	.
.	24D	.	16r	.
24cc	24C	.	.	.
.	.	.	16FF	.
24dd	24BB-	.	.	.
24cc	24AA	.	16.AA	.
24dd	24BB-	.	.	.
24ee-	24C	.	.	.
.	.	.	32FF	.
=36	=36	=36	=36	=36
16dd	8BB-	24f]	4BB-	2r
.	.	24b-	.	.
16b-	.	.	.	.
.	.	24f	.	.
16f	8D	24d	.	.
.	.	24f	.	.
16b-	.	.	.	.
.	.	24d	.	.
16dd	8F	16B-	8r	.
16ee-	.	16ccc	.	.
16dd	8BB-	16bb-	8d	.
16cc	.	16aa	.	.
=37	=37	=37	=37	=37
24b-	8E-	6gg	8g	2r
24g	.	.	.	.
24a	.	.	.	.
24b-	8r	.	6G	.
24cc	.	24aa	.	.
24dd	.	24ff#	.	.
16.ee-	8C	16.gg	.	.
.	.	.	24A	.
.	.	.	24B-	.
32dd	.	32g	.	.
16.cc	8r	16.ee-	24A	.
.	.	.	24B-	.
.	.	.	24c	.
32ee-	.	32f#	.	.
=38	=38	=38	=38	=38
24dd	[2G	8g	24B-	2r
24ee-	.	.	24c	.
24ff	.	.	24d	.
24ee-	.	24r	6c	.
24gg	.	24ccc	.	.
24ee-	.	24gg	.	.
24cc	.	24ee-	.	.
24b	.	24dd	24d	.
24a	.	24cc	24e-	.
24b	.	16.ff	24d	.
24cc	.	.	24e-	.
24dd	.	.	24f	.
.	.	32b	.	.
=39	=39	=39	=39	=39
24cc	2G_	8cc	24e-	2r
24b-	.	.	24d	.
24a	.	.	24c	.
24b-	.	24r	6d	.
24g	.	24b-	.	.
24a	.	24cc	.	.
24b-	.	16.dd	.	.
24cc	.	.	24c	.
24dd	.	.	24B-	.
.	.	32g	.	.
24ee-	.	16.f#	24c	.
24dd	.	.	24B-	.
24cc	.	.	24A	.
.	.	32ee-	.	.
=40	=40	=40	=40	=40
24dd	2G_	24dd	16.B-	2r
24g	.	24gg	.	.
24b-	.	24dd	.	.
.	.	.	32d	.
24dd	.	24b-	16.g	.
24b-	.	24dd	.	.
24dd	.	24b-	.	.
.	.	.	32d	.
16gg	.	16g	16B-	.
16ff#	.	16ee-	16A	.
16gg	.	16dd	16B-	.
16aa	.	16cc	16c	.
=41	=41	=41	=41	=41
16bb-	4G]	16b-	8d	2r
16gg	.	16dd	.	.
16dd	.	8gg	8B-	.
16gg	.	.	.	.
16bb-	8r	8r	8d	.
16ccc	.	.	.	.
16bb-	8G	[8bb-	16g	.
16aa	.	.	16f	.
=42	=42	=42	=42	=42
8gg	4c	8bb-]	16e	2r
.	.	.	16g	.
8ee	.	8gg	16cc	.
.	.	.	16g	.
8gg	8r	16ccc	16e	.
.	.	16ee	16c	.
8bb-	8G	16ff	16d	.
.	.	16gg	16e	.
=43	=43	=43	=43	=43
16aa	4F	16cc	8f	2r
16ff	.	16a	.	.
16cc	.	8ff	8A	.
16ff	.	.	.	.
16aa	8r	8r	8c	.
16bb-	.	.	.	.
16aa	8F	[8aa	16f	.
16gg	.	.	16e	.
=44	=44	=44	=44	=44
8ff	4B-	8aa]	16d	2r
.	.	.	16f	.
8dd	.	8ff	16b-	.
.	.	.	16f	.
8ff	8r	8bb-	16d	.
.	.	.	16e	.
8aa	8F	8r	16c#	.
.	.	.	16d	.
=45	=45	=45	=45	=45
8gg	16E	24r	4e	2r
.	.	24cc#	.	.
.	16G	.	.	.
.	.	24ee	.	.
8ee	16B-	24gg	.	.
.	.	24ee	.	.
.	16G	.	.	.
.	.	24gg	.	.
8cc#	16E	8bb-	16r	.
.	16F	.	16d	.
8r	16E	8b-	16e	.
.	16D	.	16f	.
=46	=46	=46	=46	=46
16r	16C#	8a	8g	2r
32cc#	16E	.	.	.
32dd	.	.	.	.
32ee	16G	6r	8G	.
32ff	.	.	.	.
32gg	16E	.	.	.
32aa	.	.	.	.
8bb-	16C#	.	[4g	.
.	.	24gg	.	.
.	16D	.	.	.
.	.	24ff	.	.
8r	16C#	24ee	.	.
.	.	24ff	.	.
.	16BB	.	.	.
.	.	24gg	.	.
=47	=47	=47	=47	=47
24r	16.AA	4cc#	8g]	2r
24ee	.	.	.	.
24aa	.	.	.	.
.	32C#	.	.	.
24gg	16.E	.	8e	.
24ff	.	.	.	.
24ee	.	.	.	.
.	32C#	.	.	.
24ff	16.AA	8r	8c#	.
24ee	.	.	.	.
24dd	.	.	.	.
.	32BB-	.	.	.
24cc#	16.AA	8e	8r	.
24dd	.	.	.	.
24ee	.	.	.	.
.	32GG	.	.	.
=48	=48	=48	=48	=48
8ff	24FF	8A	8r	2r
.	24AA	.	.	.
.	24D	.	.	.
4r	24F	6a	8A	.
.	24E	.	.	.
.	24D	.	.	.
.	4C#	.	8e	.
.	.	24g	.	.
.	.	24f	.	.
8b-	.	24g	24E	.
.	.	24f	24D	.
.	.	24e	24C#	.
=49	=49	=49	=49	=49
8a	8D	24f	24A	2r
.	.	24e	24G	.
.	.	24d	24F	.
24g	8B-	6e	16.c#	.
24a	.	.	.	.
24f	.	.	.	.
.	.	.	32d	.
24g	8r	.	16.G	.
24f	.	24d	.	.
[8e	.	24c#	.	.
.	.	.	32A	.
.	8G#	24d	24B	.
.	.	24c#	24A	.
96e]	.	24B	24G#	.
32f	.	.	.	.
=50	=50	=50	=50	=50
8e	16.A	24c#	24G	2r
.	.	24d	24F	.
.	.	24e	24E	.
.	32G	.	.	.
4r	24F	6d	24F	.
.	24G	.	24E	.
.	24A	.	24D	.
.	16.B-	.	16.G	.
.	.	24e	.	.
.	.	24f	.	.
.	32D	.	32A	.
8ee	24C#	24e	16.B-	.
.	24D	24f	.	.
.	24E	24g	.	.
.	.	.	32C#	.
=51	=51	=51	=51	=51
8a	8D	16f	8D	2r
.	.	16d	.	.
4r	8F	16A	8DD	.
.	.	16d	.	.
.	8A	16f	16r	.
.	.	16g	16e	.
8a	8D	16f	16d	.
.	.	16e	16c	.
=52	=52	=52	=52	=52
16b-	8G	8d	24B-	2r
.	.	.	24G	.
16dd	.	.	.	.
.	.	.	24B-	.
16gg	4r	8b-	24d	.
.	.	.	24B-	.
16dd	.	.	.	.
.	.	.	24G	.
16b-	.	8g	8r	.
16g	.	.	.	.
16a	8G	8d	8B	.
16b	.	.	.	.
=53	=53	=53	=53	=53
8e	8GG	16g	8B	2r
.	.	16e	.	.
4r	8G	16B	8G	.
.	.	16e	.	.
.	8B	16g	16E	.
.	.	16a	16f	.
8b	8E	16g	16e	.
.	.	16f	16d	.
=54	=54	=54	=54	=54
16cc	8A	8e	24c	2r
.	.	.	24A	.
16ee	.	.	.	.
.	.	.	24c	.
16aa	4r	8cc	24e	.
.	.	.	24c	.
16ee	.	.	.	.
.	.	.	24A	.
16cc	.	8a	8r	.
16a	.	.	.	.
16b-	8A	8e	8c	.
16cc	.	.	.	.
=55	=55	=55	=55	=55
8f	8AA	16a	8c	2r
.	.	16f	.	.
4r	8A	16c	8A	.
.	.	16f	.	.
.	8c	16a	16F	.
.	.	16b-	16g	.
8cc	8F	16a	16f	.
.	.	16g	16e-	.
=56	=56	=56	=56	=56
16dd	8B-	4f	24d	2r
.	.	.	24B-	.
16ff	.	.	.	.
.	.	.	24F	.
16bb-	8d	.	24D	.
.	.	.	24F	.
16ff	.	.	.	.
.	.	.	24B-	.
16dd	8B-	8r	[4d	.
16b-	.	.	.	.
16cc	8F#	8a	.	.
16dd	.	.	.	.
=57	=57	=57	=57	=57
8g	8G	16b-	16d]	2r
.	.	16g	16B-	.
4r	8B-	16d	16G	.
.	.	16g	16B-	.
.	8G	16b-	16d	.
.	.	16cc	16e	.
8dd	8D	16b-	8f	.
.	.	16a	.	.
=58	=58	=58	=58	=58
8cc#	16E	8g	16B-	2r
.	16G	.	16G	.
8.r	16B-	8.r	16E	.
.	16G	.	16G	.
.	16E	.	8B-	.
16gg	16C#	16e	.	.
16ff	16D	16f	8B-	.
16ee	16E	16g	.	.
=59	=59	=59	=59	=59
4bb-	4GG	4c#	4E	2r
6r	8r	8r	8r	.
.	8G	8e	24G	.
24bb-	.	.	24A	.
24cc#	.	.	24B-	.
=60	=60	=60	=60	=60
6dd	24F	24f	24A	2r
.	24E	24g	24G	.
.	24D	24a	24F	.
.	6G	24b-	8..d	.
24ee	.	24g	.	.
24ff	.	24a	.	.
6ee	.	24b	.	.
.	24F	24a	.	.
.	24E	24b	.	.
.	.	.	32g	.
.	8A	24cc#	16.e	.
24dd	.	24b	.	.
24ee	.	24cc#	.	.
.	.	.	32g	.
=61	=61	=61	=61	=61
6ff	8D	24dd	24f	2r
.	.	24f	24d	.
.	.	24g	24e	.
.	4r	24a	24f	.
24gg	.	24g	24e	.
24aa	.	24f	24d	.
6gg	.	24e	8d	.
.	.	24g	.	.
.	.	24a	.	.
.	8G	24b-	8c#	.
24ff	.	24a	.	.
24gg	.	24g	.	.
=62	=62	=62	=62	=62
[2aa	8d	24f	24d	2r
.	.	24d	24A	.
.	.	24f	24F	.
.	6D	24a	24D	.
.	.	24f	24AA	.
.	.	24a	24FF	.
.	.	24dd	8DD	.
.	24E	24cc#	.	.
.	24F	24b	.	.
.	24E	24cc#	8AA	.
.	24F	24dd	.	.
.	24G	24ee	.	.
=63	=63	=63	=63	=63
24aa]	24F	[2dd	6D	2r
24bb-	24G	.	.	.
24ccc	24A	.	.	.
24bb-	6G	.	.	.
24gg	.	.	24C	.
24dd	.	.	24BB-	.
24ee	.	.	24BB-	.
24ff#	24A	.	24AA	.
24gg	24B-	.	24GG	.
24ff#	24A	.	16.C	.
24gg	24B-	.	.	.
24aa	24c	.	.	.
.	.	.	32FF#	.
=64	=64	=64	=64	=64
24gg	24B-	6dd]	8GG	2r
24ff	24A	.	.	.
24ee	24G	.	.	.
24ff	6A	.	8DD	.
24ee	.	24cc#	.	.
24dd	.	24b	.	.
8ee	.	8cc#	24AA	.
.	24G	.	24C#	.
.	24F	.	24D	.
8r	24G	8r	24E	.
.	24F	.	24F	.
.	24E	.	24G	.
=65	=65	=65	=65	=65
4.r	16.F	24r	16.A	2r
.	.	24dd	.	.
.	.	24a	.	.
.	32A	.	32F	.
.	16.d	24f	8D	.
.	.	24a	.	.
.	.	24f	.	.
.	32A	.	.	.
.	16.F	24d	8r	.
.	.	24f	.	.
.	.	24a	.	.
.	32E	.	.	.
8dd	16.F	24dd	[8A	.
.	.	24cc#	.	.
.	.	24b	.	.
.	32G	.	.	.
=66	=66	=66	=66	=66
8a	[2A	24cc#	24A]	2r
.	.	24a	24C#	.
.	.	24e	24E	.
6aa	.	24c#	16.G	.
.	.	24d	.	.
.	.	24e	.	.
.	.	.	32C#	.
.	.	24f	16.D	.
24gg	.	24e	.	.
24ff	.	24d	.	.
.	.	.	32A	.
24gg	.	16.e	16.AA	.
24ff	.	.	.	.
24ee	.	.	.	.
.	.	32cc#	32A	.
=67	=67	=67	=67	=67
24ff	2A_	6dd	8D	2r
24ee	.	.	.	.
24dd	.	.	.	.
6ee	.	.	8A	.
.	.	24cc#	.	.
.	.	24b	.	.
.	.	24cc#	8r	.
24dd	.	24dd	.	.
24cc#	.	24ee	.	.
24dd	.	24ff	8D	.
24cc#	.	24ee	.	.
24b	.	24dd	.	.
=68	=68	=68	=68	=68
24cc#	8A]	16.ee	16.AA	2r
24dd	.	.	.	.
24ee	.	.	.	.
.	.	32g	32c#	.
6dd	8B-	24f	8d	.
.	.	24e	.	.
.	.	24d	.	.
.	8G	4b-	24r	.
24ee	.	.	24B-	.
24ff	.	.	24A	.
24ee	8C#	.	24G	.
24ff	.	.	24F	.
24gg	.	.	24E	.
=69	=69	=69	=69	=69
16.ff	24D	8a	16.F	2r
.	24AA	.	.	.
.	24D	.	.	.
32dd	.	.	32A	.
16.a	24F	8.r	4d	.
.	24D	.	.	.
.	24F	.	.	.
32dd	.	.	.	.
16ff	8A	.	.	.
16gg	.	16b-	.	.
16ff	8AA	16a	8c#	.
16ee	.	16g	.	.
=70	=70	=70	=70	=70
24dd	6D	24f	16.d	2r
24cc	.	24e	.	.
24b-	.	24d	.	.
.	.	.	32G	.
6cc	.	4a	16.F#	.
.	24F#	.	.	.
.	24G	.	.	.
.	.	.	32E	.
.	24A	.	16.D	.
24b-	24B-	.	.	.
24a	24c	.	.	.
.	.	.	32C	.
24b-	16.d	24g	24BB-	.
24cc	.	24a	24AA	.
24dd	.	24b-	24GG	.
.	32D	.	.	.
=71	=71	=71	=71	=71
4.a	4.D	4.f#	4.D	2r
8r	8r	8r	8r	.
==	==	==	==	==
*-	*-	*-	*-	*-
!!!RWG1: This file contains only pitch and duration data.
!!!RWG2: Transposing instruments are not transposed.
!!!RWG3: Spines may have incompatible meters.
!!!RWG4: Durations of rests and tied notes may be interpreted.
!!!RWG: Key is interpreted using the Humdrum key tool.
!!!AFT: stage1
!!!END: 1997/04/15/
!!format changes:
!!content changes:
!!public access: complete
!!!KEY: 3334788363
!!!EMD: Converted from MuseData to Humdrum Dec 19, 2000, by Andreas Kornstaedt using muse2kern.
